icons/linear-new-other-scan.svg

<svg xmlns="http://www.w3.org/2000/svg" width="32px" height="32px" viewBox="0 0 32 32" version="1.1">
    <title>linear-new-other-scan</title>
    <g id="linear-new-other-scan" stroke-width="1" fill-rule="evenodd">
        <path d="M11,3 C11.5522847,3 12,3.44771525 12,4 C12,4.55228475 11.5522847,5 11,5 L5,5 L5,11 C5,11.5128358 4.61395981,11.9355072 4.11662113,11.9932723 L4,12 C3.44771525,12 3,11.5522847 3,11 L3,4 C3,3.44771525 3.44771525,3 4,3 L11,3 Z M28,3 C28.5522847,3 29,3.44771525 29,4 L29,11 C29,11.5522847 28.5522847,12 28,12 C27.4477153,12 27,11.5522847 27,11 L27,5 L21,5 C20.4871642,5 20.0644928,4.61395981 20.0067277,4.11662113 L20,4 C20,3.44771525 20.4477153,3 21,3 L28,3 Z M28,15 C28.5522847,15 29,15.4477153 29,16 C29,16.5522847 28.5522847,17 28,17 L4,17 C3.44771525,17 3,16.5522847 3,16 C3,15.4477153 3.44771525,15 4,15 L28,15 Z M4,20 C4.55228475,20 5,20.4477153 5,21 L5,27 L11,27 C11.5128358,27 11.9355072,27.3860402 11.9932723,27.8833789 L12,28 C12,28.5522847 11.5522847,29 11,29 L4,29 C3.44771525,29 3,28.5522847 3,28 L3,21 C3,20.4477153 3.44771525,20 4,20 Z M28,20 C28.5522847,20 29,20.4477153 29,21 L29,28 C29,28.5522847 28.5522847,29 28,29 L21,29 C20.4477153,29 20,28.5522847 20,28 C20,27.4477153 20.4477153,27 21,27 L27,27 L27,21 C27,20.4871642 27.3860402,20.0644928 27.8833789,20.0067277 L28,20 Z" id="&#24418;&#29366;" fill-rule="nonzero" />
    </g>
</svg>

<svg xmlns="http://www.w3.org/2000/svg" viewBox="0 0 32 32"><path fill="currentColor" d="M11 3a1 1 0 0 1 0 2H5v6a1 1 0 0 1-.883.993L4 12a1 1 0 0 1-1-1V4a1 1 0 0 1 1-1zm17 0a1 1 0 0 1 1 1v7a1 1 0 0 1-2 0V5h-6a1 1 0 0 1-.993-.883L20 4a1 1 0 0 1 1-1zm0 12a1 1 0 0 1 0 2H4a1 1 0 0 1 0-2zM4 20a1 1 0 0 1 1 1v6h6a1 1 0 0 1 .993.883L12 28a1 1 0 0 1-1 1H4a1 1 0 0 1-1-1v-7a1 1 0 0 1 1-1m24 0a1 1 0 0 1 1 1v7a1 1 0 0 1-1 1h-7a1 1 0 0 1 0-2h6v-6a1 1 0 0 1 .883-.993z"/></svg>
